!!!ONB: MCCC : IEE0094_03 : Extracted Monophonic Melody
!!!COM: Elgar, Edward
!!!OPR: Violin Concerto
!!!OMV: 3
!!!SCT: Op.61
!!!ODT: 1905///
**kern
*staff1
*clefG2
*k[f#c#]
*D:
*M4/4
4gg
=8
4ccc
4r
2r
=9
1r
=10
1r
=11
1r
=12
4ccc
4ee
4aa
4r
=13
2r
4r
4ddd
=14
4ggg
4r
2r
=15
4ggg
4r
2r
=16
1r
=17
1r
=18
1r
=19
1r
=20
1d
=21
1d[
=22
4d]
4r
2r
=23
1r
=24
4r
2d
4r
=25
4r
2c#
4r
=26
4r
2b
4r
=27
1r
=28
1r
=29
1r
=30
4r
4aa
4bb
4ddd
=31
4gg
4aa
4.ccc#
8ff#
=32
4gg
4bb
2r
=33
4.aaa
8ddd
4eee
4ggg
=34
4fff#
4r
2r
=35
1r
=36
1r
=37
1r
=38
2r
4r
4bb
=39
4ee
4r
4.aa
8dd
=40
4ee
2a
4r
=41
4.ff#
8b
4cc#
4r
=42
2r
4r
4aaa#
=43
4bbb
4r
2r
=44
4.ccc#
8eee#
4fff#
4r
=45
2r
4.aaa
8ddd
=46
4eee
4r
2r
=47
1r
=48
1r
=49
1r
=50
1r
=51
16f#
16a
16cc#
16ee
16ff#
16aa
16ccc#
16eee
4ddd
4r
=52
1r
=53
2r
4r
4bb
=54
4aa
4gg
[4b
16b]
16dd
16ff#
16f#
=55
4ee
4dd
4ff#[
16ff#]
16aa
16ddd
16dd
=56
4ccc#
4bb
2r
=57
2r
4aa#[
16aa#]
16ddd
16fff
16ff
=58
4ee
24e
24g
24a#
24dd
24gg
24aa#
4ddd
4r
=59
4.ggg[
16ggg]
16fff
4r
8.aa
16gg
=60
2r
2bb[
=61
4bb]
4aa
2r
=62
1r
=63
1r
=64
1r
=65
1r
=66
1r
=67
1r
=68
1r
=69
1r
=70
1r
=71
1r
=72
1r
=73
1r
=74
1r
=75
1r
=76
4b
4b
4b
12b
12a
12g
=77
8ff#
8cc
4b
2r
=78
1r
=79
1r
=80
2r
4r
12b
12a
12g#
=81
8ff#
8ee
4g#[
8g#]
8f#
8b
8d#
=82
8cc#
8b
4d#
2r
=83
1r
=84
4b
4a
4g
12b
12a
12g
=85
8ff#
8ee
4g[
8g]
8f#
8b
8d#
=86
2r
8ccc
8bb
8dd#
8dd
=87
2r
8aa#
8aa
8cc#
8cc
=88
1r
=89
1r
=90
1r
=91
1r
=92
1r
=93
1r
=94
2r
4eee
4r
=95
4eee
4r
4eee
4r
=96
2r
4fff#
4r
=97
4fff#
4r
4ccc
4r
=98
1r
=99
1r
=100
1r
=101
1r
=102
1r
=103
1r
=104
2ddd
4ddd
4gg[
=105
4gg]
4r
2r
=106
1r
=107
2r
4r
4gg
=108
4ccc#
4r
2r
=109
2r
4r
4gg
=110
4ccc
4r
2r
=111
2r
4r
4gg
=112
4ccc
4ee
4aa
4r
=113
1r
=114
1r
=115
4fff
4aa#
4ddd#
4gg#
=116
4ccc#
4ff#
4bb
4ee
=117
*M5/4
4aa
4r
4r
2r
=118
*M4/4
1r
=119
1r
=120
1r
=121
1r
=122
4r
2ff#
4r
=123
4r
2gg
4r
=124
4r
2ee
4r
=125
1r
=126
1r
=127
1r
=128
1r
=129
1r
=130
1r
=131
1r
=132
1r
=133
1r
=134
1r
=135
2r
4.dd
8dd
=136
4dd#
4r
2r
=137
4.fff#
8bb
4ccc#
4r
=138
4r
4bb
4ccc
4eee
=139
4aa
4bb
4.ddd
8gg
=140
4aa
4ccc
4ff#
4gg
=141
4bb
8bb
8ff#
4aa
4aa[
=142
4aa]
4gg#
2r
=143
1r
=144
1r
=145
1r
=146
1r
=147
1r
=148
1r
=149
2r
4r
4eee
=150
4ddd
4ccc
4r
8r
16ccc
16cc
=151
4b
8r
24aa
24ddd
24fff
4aaa
4r
=152
4.ddd[
16ddd]
16ccc
4r
8.eee
16ddd
=153
1r
=154
2cc
4.ee[
16ee]
16ccc
=155
2ccc
4.ff#
8eee
=156
8.ddd
16aa#
4bb[
8.bb]
16dd
4dd#
=157
4ee[
4ee]
2fff#[
=158
4fff#]
4eee
2r
=159
1r
=160
1r
=161
1r
=162
1r
=163
1r
=164
1r
=165
1r
=166
2.dd
12dd
12cc
12b
=167
8aa
8gg
[4b
8b]
8a
8dd
8f#[
=168
8f#]
8g
8b
8d
4.f#
8e
=169
8c#
8d
8a
8d
4.cc
8a#
=170
4a
4r
2r
=171
1r
=172
2r
4r
12a
12g
12f#
=173
8ee
8dd
4f#[
8f#]
8e
8a
8c#
=174
8b
8a
4c#
2r
=175
1r
=176
4a
4g
4f
12a
12g
12f
=177
8ee
8dd
4f[
8f]
8e
8a
8c#
=178
2r
8aa#
8aa
8cc#
8cc
=179
2r
8gg#
8gg
8b
8a#
=180
1r
=181
1r
=182
1r
=183
1r
=184
1r
=185
1r
=186
2r
4fff#
4r
=187
4bb
4r
4bb
4r
=188
2r
4ccc#
4r
=189
4ccc#
4r
2r
=190
8.fff#
16fff#
8.aa
32r
32aa#
4bb
4r
=191
1r
=192
1r
=193
1r
=194
1r
=195
1r
=196
2r
4.ff#
8g#
=197
4f#
4r
2r
=198
2r
4.ff#
8g#
=199
4a#
4r
2r
=200
2r
4.gg#
8cc[
=201
4cc]
4r
2r
=202
2r
4gg#
4cc#
=203
1r
=204
1r
=205
4.dd#
8ff
2ff[
=206
4ff]
4gg
4gg#
4r
=207
1r
=208
1r
=209
2f
2g[
=210
4g]
4f
4.ff
8a#[
=211
4a#]
4r
2r
=212
4r
4aa
4gg
4r
=213
1r
=214
1r
=215
4r
8r
8bb
4ccc
4ddd#
=216
1r
=217
4r
8r
8bb
4ccc
4ddd#
=218
4r
8r
8bb
4ccc
4ddd#
=219
4r
8r
8bb#
4ccc#
4eee
=220
1r
=221
1r
=222
1r
=223
1r
=224
1r
=225
1r
=226
1r
=227
1r
=228
1r
=229
1r
=230
2r
4r
4bb
=231
4aa#
4gg#
4b
4r
=232
4fff#
4eee
4gg#
4r
=233
1r
=234
1r
=235
1r
=236
1r
=237
1r
=238
2r
4r
4ddd
=239
4ccc#
4bb
2dd
=240
2r
4r
4gg
=241
4ff#
4ee
4gg
16aa
16ddd
8ddd
=242
4dd
4r
4dd
16ff#
16bb
8bb
=243
4b
4r
2r
=244
2f#
2g
=245
2f#
2g
=246
1r
=247
1r
=248
1r
=249
1r
=250
1r
=251
1r
=252
1r
=253
1r
=254
1r
=255
*M7/4
1..r
=256
1..r
=257
*M6/4
1.r
=258
*M5/4
*M10/4
*M6/4
1.r
=259
*M4/4
1r
=260
1r
=261
1r
=262
*M5/4
*M4/4
1r
=263
1r
=264
1r
=265
1r
=266
1r
=267
1r
=268
*M5/4
*M4/4
1r
=269
1r
=270
1r
=271
*M5/4
*M6/4
1.r
=272
*M5/4
*M4/4
1r
=273
*M5/4
*M6/4
1.r
=274
*M5/4
*M3/4
2.r
=275
2.r
=276
2.r
=277
*M4/4
1r
=278
*M6/4
1.r
=279
*M4/4
1r
=280
1r
=281
1r
=282
1r
=283
*M5/4
*M4/4
1r
=284
1r
=285
1r
=286
*M5/4
*M4/4
1r
=287
1r
=288
1r
=289
1r
=290
1r
=291
1r
=292
1r
=293
1r
=294
*M5/4
*M4/4
1r
=295
1r
=296
*M5/4
*M4/4
1r
=297
1r
=298
1r
=299
1r
=300
1r
=301
1r
=302
1r
=303
1r
=304
1r
=305
1r
=306
1r
=307
1r
=308
1r
=309
4fff#
4r
2r
=310
1r
=311
2r
4r
4aa
=312
4ddd
4gg
4ccc
4ccc
=313
4fff
4aa#
4ddd#
4ddd
=314
4ggg
4bb
4eee
4r
=315
2r
4r
4ggg
=316
4eee
4ccc#
4bb
4gg
=317
1r
=318
8r
16r
32r
32cc#
4ff#
8r
16r
32r
32dd#
4gg#
=319
8r
16r
32r
32ee
4aa#
8r
16r
32r
32ff#
4bb
=320
8r
16r
32r
32ff
4aa#
8r
16r
32r
32gg
4ccc
=321
8r
16r
32r
32gg#
4ccc#
8r
16r
32r
32gg#
4ccc#
=322
1r
=323
1r
=324
1r
=325
1r
=326
4r
4cc#
4r
4b
=327
4r
4gg#
2r
=328
4r
4aa#
4r
4bb#
=329
4r
4ccc#
4r
4ccc#
=330
4r
4ddd#
4r
4eee#
=331
4r
4fff#
2r
=332
4ddd#
4bb
4ff#
4dd#
=333
4b
4r
2r
=334
1r
=335
1r
=336
4ddd#
2bb
4r
=337
4bb
2gg#
4cc#
=338
4ff#
4r
2r
=339
1r
=340
4ggg#
2eee
4ccc#[
=341
4ccc#]
2gg#
4ff#
=342
4bb
4r
2r
=343
1r
=344
1r
=345
1r
=346
1r
=347
1r
=348
1r
=349
1r
=350
1r
=351
2r
2ggg#
=352
2ccc#
2ddd#
=353
2.fff#
4bb
=354
1ccc#
=355
1eee
=356
4ddd#
4r
2r
=357
1r
=358
1r
=359
1r
=360
4ddd#
4r
2r
=361
4bb
4r
2r
=362
1b
==
*-
